X: 15
T: Fairy Dance, The
C: Nathaniel Gow
Z: UPipes & harp
S: https://thesession.org/tunes/424#setting49411
R: reel
M: 4/4
L: 1/8
K: Dmaj
g|fAdg fAdg|fAde cdeg|fAdf gfed|cABc d3 g|
fAdg fAdg|fAde cdeg|fAdf gfed|cABc defg||
a2af b2ba|g2ge a2ag|f2fd gfed|cABc defg|
a2af b2ba|g2ge a2ag|f2fd gfed|cABc d2d2||

%-------------------- TUNE SEPARATOR --------------------%

